X: 85
T:Muiñeira do Encintado
M:6/8
L:1/8
Q:200
C:Trad
S:Rep. Euxemes de Arbo
R:Muiñeira
K:C
CE | G2 E F2 D | E2 C {D}CB,C | DB,D FED | 
EDC "F."GCE | G2 E F2 D | E2 C {D}CB,C| DB,D FED| 
C3 "F."G :| |: CE | G3 cBc | "~"G4 AG | D2 E FED | EDC "F."GCE|
G3 cBc| G4 AG | D2 E FED | C3 "F."G :|

